X:30
T:Corriechoillie's Welcome
M:2/4
R:Reel
L:1/8
%%printtempo 0
Q:100
K:D
ud|\
"D"A>B Ad|"A"e>d BA|"D"d>e fa|"A"fe ef|"D"A>B Ad|"G"e>d "A"BA|"D"d>e "A7"fa|
"D"fd d:|g|"D"a>f "Bm"df|"G"e>d "A7"BA|"Bm"d>e "D/A"fa|"G"fe "A"eg|"D"a>f "D/F#"df|"G"e>d "Em"BA|
"D/A"d>e "A7"fa|"D"fd "G"dg|"D"a>f df|"A"e>d BA|"D"d>e fa|"E7"fe "A"ef|"D" A>B "D/F#"Ad|
"G"e>d "Em"BA|"D/A"d>e "A7"fa|"D"fd "E7"d(uc/B/)|]
